tde/theme/icons/themes/original/google-controller.svg

<svg xmlns="http://www.w3.org/2000/svg" width="240" height="240" viewBox="0 0 24 24"><path fill="#fff" d="M7.97 16 5 19c-.33.3-.77.5-1.25.5A1.75 1.75 0 0 1 2 17.75v-.25l1-7.38A4.524 4.524 0 0 1 7.5 6h9c2.36 0 4.29 1.81 4.5 4.12l1 7.38v.25a1.75 1.75 0 0 1-1.75 1.75c-.48 0-.92-.2-1.25-.5l-2.97-3H7.97M7 8v2H5v1h2v2h1v-2h2v-1H8V8H7m9.5 0a.75.75 0 0 0-.75.75.75.75 0 0 0 .75.75.75.75 0 0 0 .75-.75.75.75 0 0 0-.75-.75m-1.75 1.75a.75.75 0 0 0-.75.75.75.75 0 0 0 .75.75.75.75 0 0 0 .75-.75.75.75 0 0 0-.75-.75m3.5 0a.75.75 0 0 0-.75.75.75.75 0 0 0 .75.75.75.75 0 0 0 .75-.75.75.75 0 0 0-.75-.75M16.5 11.5a.75.75 0 0 0-.75.75.75.75 0 0 0 .75.75.75.75 0 0 0 .75-.75.75.75 0 0 0-.75-.75z"/></svg>

<?xml version="1.0" encoding="UTF-8"?><!DOCTYPE svg PUBLIC "-//W3C//DTD SVG 1.1//EN" "http://www.w3.org/Graphics/SVG/1.1/DTD/svg11.dtd"><svg xmlns="http://www.w3.org/2000/svg" xmlns:xlink="http://www.w3.org/1999/xlink" version="1.1" width="240" height="240" viewBox="0 0 24 24"><path fill="#ffffff" d="M7.97,16L5,19C4.67,19.3 4.23,19.5 3.75,19.5A1.75,1.75 0 0,1 2,17.75V17.5L3,10.12C3.21,7.81 5.14,6 7.5,6H16.5C18.86,6 20.79,7.81 21,10.12L22,17.5V17.75A1.75,1.75 0 0,1 20.25,19.5C19.77,19.5 19.33,19.3 19,19L16.03,16H7.97M7,8V10H5V11H7V13H8V11H10V10H8V8H7M16.5,8A0.75,0.75 0 0,0 15.75,8.75A0.75,0.75 0 0,0 16.5,9.5A0.75,0.75 0 0,0 17.25,8.75A0.75,0.75 0 0,0 16.5,8M14.75,9.75A0.75,0.75 0 0,0 14,10.5A0.75,0.75 0 0,0 14.75,11.25A0.75,0.75 0 0,0 15.5,10.5A0.75,0.75 0 0,0 14.75,9.75M18.25,9.75A0.75,0.75 0 0,0 17.5,10.5A0.75,0.75 0 0,0 18.25,11.25A0.75,0.75 0 0,0 19,10.5A0.75,0.75 0 0,0 18.25,9.75M16.5,11.5A0.75,0.75 0 0,0 15.75,12.25A0.75,0.75 0 0,0 16.5,13A0.75,0.75 0 0,0 17.25,12.25A0.75,0.75 0 0,0 16.5,11.5Z" /></svg>
